X:17
T:Hpps simple chords 8
M:3/4
L:1/8
K:G
(3DEF [G2G,2B,2D2] G>B | D2 (3DEF [GG,B,D]>F | G>A B4 | [cC,E,G,]>B c>e d>B | A>G [AA,^CEG]>B A>G |
E2 (3DEF [G2G,2B,2D2] | G>B D2 (3DEF | [GG,B,D]>F G>A B4 | [cC,E,G,]>B c>e |
d>B G>A [BD,F,A,C]>c | B>A G2 (3DEF | [G2G,2B,2D2] G>B D2 | (3DEF [GG,B,D]>F G>A |
B4 [cC,E,G,]>B | c>e d>B A>G | [AA,^CEG]>B A>G E2 | (3DEF [G2G,2B,2D2] G>B |
D2 (3DEF [GG,B,D]>F | G>A B4 | [cC,E,G,]>B c>e d>B | G>A [BD,F,A,C]>c B>A |
G2 d2 [e2C,2E,2G,2] | e>g d2>B2 | [cD,F,A,C]>B c>d B4 | [cC,E,G,]>B c>e |
d>B A>G [AA,^CEG]>B | A>G E2 (3DEF | [G2G,2B,2D2] G>B D2 | (3DEF [GG,B,D]>F G>A |
B4 [cC,E,G,]>B | c>e d>B G>A | [BD,F,A,C]>c B>A G2 | d2 [e2C,2E,2G,2] e>g |
d2>B2 [cD,F,A,C]>B | c>d B4 | [cC,E,G,]>B c>e d>B | A>G [AA,^CEG]>B A>G |
E2 (3DEF [G2G,2B,2D2] | G>B D2 (3DEF | [GG,B,D]>F G>A B4 | [cC,E,G,]>B c>e |
d>B G>A [BD,F,A,C]>c | B>A G2 |


